**kern	**silbe	**kern	**silbe	**kern	**silbe	**harmony	**phrase	**leadinstrument	**rhyme	**timestamp	**harte
*ICvox	*	*ICvox	*	*ICvox	*	*M6/8	*	*	*	*	*M6/8
*VRlead	*	*VRharmonize	*	*VRharmonize	*	*	*	*	*	*	*
*Hstimme	*	*Nstimme	*	*Nstimme	*	*	*	*	*	*	*
*c:	*	*c:	*	*c:	*	*c:	*c:	*c:	*	*c:	*c:
*M6/8	*	*M6/8	*	*M6/8	*	*	*	*	*	*	*
*clefG2	*	*clefG2	*	*clefG2	*	*	*	*	*	*	*
r;	.	r;	.	r;	.	1r;	.	r	.	0	N.C.
=1	=1	=1	=1	=1	=1	=1	=1	=1	=1	=1	=1
4.r	.	2.r	.	2.r	.	2.N	.	.	.	0.418	N.C.
8G	I've	.	.	.	.	.	.	.	.	.	.
8B-	paid	.	.	.	.	.	.	.	.	.	.
8c	my	.	.	.	.	.	.	.	.	.	.
=2	=2	=2	=2	=2	=2	=2	=2	=2	=2	=2	=2
*>Letter>A	*>Letter>A	*>Letter>A	*>Letter>A	*>Letter>A	*>Letter>A	*>Letter>A	*>Letter>A	*>Letter>A	*>Letter>A	*>Letter>A	*>Letter>A
*>Label>Verse	*>Label>Verse	*>Label>Verse	*>Label>Verse	*>Label>Verse	*>Label>Verse	*>Label>Verse	*>Label>Verse	*>Label>Verse	*>Label>Verse	*>Label>Verse	*>Label>Verse
2.c	dues	2.r	.	2.r	.	2.Cm	newline	voice	A	1.387	C:min
=3	=3	=3	=3	=3	=3	=3	=3	=3	=3	=3	=3
4.r	.	2.r	.	2.r	.	2.Gm	.	voice	.	3.324	G:sus4(b7)/4
8G	time	.	.	.	.	.	.	.	B	.	.
8B-	af-	.	.	.	.	.	.	.	.	.	.
16d	-ter	.	.	.	.	.	.	.	.	.	.
[16c	time	.	.	.	.	.	.	.	B	.	.
=4	=4	=4	=4	=4	=4	=4	=4	=4	=4	=4	=4
4.c]	_	2.r	.	2.r	.	2.Cm	.	voice	.	5.261	C:min
4.r	.	.	.	.	.	.	.	.	.	.	.
=5	=5	=5	=5	=5	=5	=5	=5	=5	=5	=5	=5
4.r	.	2.r	.	2.r	.	2.Gm	.	voice	.	7.198	G:sus4(b7)/4
8G	I've	.	.	.	.	.	.	.	.	.	.
8B-	done	.	.	.	.	.	.	.	.	.	.
[8c	my	.	.	.	.	.	.	.	.	.	.
=6	=6	=6	=6	=6	=6	=6	=6	=6	=6	=6	=6
8c]	_	2.r	.	2.r	.	2.Cm	newline	voice	.	9.135	C:min
16c	sen-	.	.	.	.	.	.	.	.	.	.
8.c	-tence	.	.	.	.	.	.	.	.	.	.
4.r	.	.	.	.	.	.	.	.	.	.	.
=7	=7	=7	=7	=7	=7	=7	=7	=7	=7	=7	=7
4r	.	2.r	.	2.r	.	2.Gm	.	voice	.	11.069	G:sus4(b7)/4
16G	but	.	.	.	.	.	.	.	.	.	.
16G	co-	.	.	.	.	.	.	.	.	.	.
16d	-mmit-	.	.	.	.	.	.	.	.	.	.
16c	-ed	.	.	.	.	.	.	.	.	.	.
4B-	no	.	.	.	.	.	.	.	.	.	.
=8	=8	=8	=8	=8	=8	=8	=8	=8	=8	=8	=8
[4.c	crime	2.r	.	2.r	.	2.Cm	.	voice	B	13.003	C:min
4c]	_	.	.	.	.	.	.	.	.	.	.
8r	.	.	.	.	.	.	.	.	.	.	.
=9	=9	=9	=9	=9	=9	=9	=9	=9	=9	=9	=9
4.r	.	2.r	.	2.r	.	2.Gm	.	voice	.	14.938	G:sus4(b7)/4
8B-	And	.	.	.	.	.	.	.	.	.	.
8d	bad	.	.	.	.	.	.	.	.	.	.
8e-	mis-	.	.	.	.	.	.	.	.	.	.
=10	=10	=10	=10	=10	=10	=10	=10	=10	=10	=10	=10
4e-	-takes	2.r	.	2.r	.	2.E-M	newline	voice	.	16.872	E-:maj
8r	.	.	.	.	.	.	.	.	.	.	.
4.r	.	.	.	.	.	.	.	.	.	.	.
=11	=11	=11	=11	=11	=11	=11	=11	=11	=11	=11	=11
4.r	.	2.r	.	2.r	.	2.B-m	.	voice	.	18.803	B-:sus4(b7)/4
8B-	I've	.	.	.	.	.	.	.	.	.	.
16d	made	.	.	.	.	.	.	.	.	.	.
8e-	a	.	.	.	.	.	.	.	.	.	.
[16e-	few	.	.	.	.	.	.	.	A	.	.
=12	=12	=12	=12	=12	=12	=12	=12	=12	=12	=12	=12
4e-]	_	2.r	.	2.r	.	2.E-M	.	voice	.	20.735	E-:maj
16c	_	.	.	.	.	.	.	.	.	.	.
16B-	_	.	.	.	.	.	.	.	.	.	.
4.r	.	.	.	.	.	.	.	.	.	.	.
=13	=13	=13	=13	=13	=13	=13	=13	=13	=13	=13	=13
4.r	.	2.r	.	2.r	.	2.B-m	.	voice	.	22.667	B-:sus4(b7)/4
8B-	I've	.	.	.	.	.	.	.	.	.	.
8d	had	.	.	.	.	.	.	.	.	.	.
8e-	my	.	.	.	.	.	.	.	.	.	.
=14	=14	=14	=14	=14	=14	=14	=14	=14	=14	=14	=14
8.e-	share	2.r	.	2.r	.	4.E-M	newline	voice	.	24.598	E-:maj
16e-	of	.	.	.	.	.	.	.	.	.	.
8f	sand	.	.	.	.	.	.	.	.	.	.
8f	kicked	.	.	.	.	4.B-M	.	voice	.	25.552	B-:maj/3
16f	in	.	.	.	.	.	.	.	.	.	.
8g	my	.	.	.	.	.	.	.	.	.	.
[16g	face	.	.	.	.	.	.	.	.	.	.
=15	=15	=15	=15	=15	=15	=15	=15	=15	=15	=15	=15
8g]	_	2.r	.	2.r	.	4.Cm	.	voice	.	26.506	C:min
8r	.	.	.	.	.	.	.	.	.	.	.
16g	but	.	.	.	.	.	.	.	.	.	.
16g	I've	.	.	.	.	.	.	.	.	.	.
4a	_	.	.	.	.	4.FMm	.	voice	.	27.46	F:7
16a	come	.	.	.	.	.	.	.	.	.	.
[16b-	_	.	.	.	.	.	.	.	.	.	.
=16	=16	=16	=16	=16	=16	=16	=16	=16	=16	=16	=16
8b-]	_	4.r	.	2.r	.	2.B-M	.	voice	.	28.413	B-:maj
[4b-	through	.	.	.	.	.	.	.	A	.	.
4.b-]	_	16B-	And	.	.	.	.	.	.	.	.
.	.	16c	the	.	.	.	.	.	.	.	.
.	.	16d	beat	.	.	.	.	.	.	.	.
.	.	16f	will	.	.	.	.	.	.	.	.
.	.	8a-	go	.	.	.	.	.	.	.	.
=17	=17	=17	=17	=17	=17	=17	=17	=17	=17	=17	=17
2.r	.	4cc	on	4c	on	4.B-m	.	voice	.	30.321	B-:sus4(b7)
.	.	8r	.	8r	.	.	.	.	.	.	.
.	.	4cc	on	4d-	on	4.B-Mm	.	voice	.	31.274	B-:7(#11)
.	.	8r	.	8r	.	.	.	.	.	.	.
=18	=18	=18	=18	=18	=18	=18	=18	=18	=18	=18	=18
2.r	.	4cc	on	4d	on	4.B-Mm	.	voice	.	32.228	B-:7
.	.	8r	.	8r	.	.	.	.	.	.	.
*F:	*	*F:	*	*F:	*	*F:	*	*	*	*	*F:
.	.	4.cc	on	4.e	on	4.CMm	.	voice	.	33.182	C:7
=19	=19	=19	=19	=19	=19	=19	=19	=19	=19	=19	=19
*>Letter>B	*>Letter>B	*>Letter>B	*>Letter>B	*>Letter>B	*>Letter>B	*>Letter>B	*>Letter>B	*>Letter>B	*>Letter>B	*>Letter>B	*>Letter>B
*>Label>Chorus	*>Label>Chorus	*>Label>Chorus	*>Label>Chorus	*>Label>Chorus	*>Label>Chorus	*>Label>Chorus	*>Label>Chorus	*>Label>Chorus	*>Label>Chorus	*>Label>Chorus	*>Label>Chorus
[4.f	We	4.r	.	4.r	.	2.FM	newline	voice	.	34.136	F:maj
8f]	_	4.r	.	4.r	.	.	.	.	.	.	.
8e	are	.	.	.	.	.	.	.	.	.	.
8f	the	.	.	.	.	.	.	.	.	.	.
=20	=20	=20	=20	=20	=20	=20	=20	=20	=20	=20	=20
4e	champ-	2.r	.	2.r	.	2.Amm	.	voice	.	36.035	A:min7
[8c	-ions	.	.	.	.	.	.	.	.	.	.
8c]	_	.	.	.	.	.	.	.	.	.	.
8r	.	.	.	.	.	.	.	.	.	.	.
8A	my	.	.	.	.	.	.	.	.	.	.
=21	=21	=21	=21	=21	=21	=21	=21	=21	=21	=21	=21
4d	friend	2.r	.	2.r	.	2.DM	.	voice	C	37.934	D:maj
[8A	_	.	.	.	.	.	.	.	.	.	.
4.A]	_	.	.	.	.	.	.	.	.	.	.
=22	=22	=22	=22	=22	=22	=22	=22	=22	=22	=22	=22
4.r	.	2.r	.	2.r	.	4.B-m	.	voice	.	39.834	B-:5
4r	.	.	.	.	.	4.Cm	.	voice	.	40.783	C:5
8c	and	.	.	.	.	.	.	.	.	.	.
=23	=23	=23	=23	=23	=23	=23	=23	=23	=23	=23	=23
[4.f	we'll	2.r	.	2.r	.	2.FM	newline	voice	.	41.733	F:maj
8f]	_	.	.	.	.	.	.	.	.	.	.
8g	keep	.	.	.	.	.	.	.	.	.	.
8a	on	.	.	.	.	.	.	.	.	.	.
=24	=24	=24	=24	=24	=24	=24	=24	=24	=24	=24	=24
4cc	fight-	2.r	.	2.r	.	2.Amm	.	voice	.	43.638	A:min7
[8a	-ing	.	.	.	.	.	.	.	.	.	.
8a]	_	.	.	.	.	.	.	.	.	.	.
16r	.	.	.	.	.	.	.	.	.	.	.
8d	till	.	.	.	.	.	.	.	.	.	.
16e	the	.	.	.	.	.	.	.	.	.	.
=25	=25	=25	=25	=25	=25	=25	=25	=25	=25	=25	=25
[4.d	end	2.r	.	2.r	.	2.B-M	.	voice	C	45.542	B-:maj
4d]	_	.	.	.	.	.	.	.	.	.	.
8r	.	.	.	.	.	.	.	.	.	.	.
=26	=26	=26	=26	=26	=26	=26	=26	=26	=26	=26	=26
2.r	.	2.r	.	2.r	.	2.DMm	.	voice	.	47.447	D:7/3
=27	=27	=27	=27	=27	=27	=27	=27	=27	=27	=27	=27
4.d	We	2.r	.	2.r	.	2.Gm	newline	voice	.	49.351	G:min
4c	are	.	.	.	.	.	.	.	.	.	.
8d	the	.	.	.	.	.	.	.	.	.	.
=28	=28	=28	=28	=28	=28	=28	=28	=28	=28	=28	=28
4.c	champ-	2.r	.	2.r	.	2.Gm	.	voice	.	.	G:min
4B-	-ions	.	.	.	.	.	.	.	.	.	.
8r	.	.	.	.	.	.	.	.	.	.	.
=29	=29	=29	=29	=29	=29	=29	=29	=29	=29	=29	=29
4.b-	We	2.r	.	2.r	.	2.B-m	.	voice	.	53.173	B-:min
4a	are	.	.	.	.	.	.	.	.	.	.
8b-	the	.	.	.	.	.	.	.	.	.	.
=30	=30	=30	=30	=30	=30	=30	=30	=30	=30	=30	=30
4.a	champ-	2.r	.	2.r	.	4.AMm	.	voice	.	55.084	A:7(b9)/5
4g	-ions	.	.	.	.	4.AMm	.	voice	.	56.039	A:7(b9)/b7
8r	.	.	.	.	.	.	.	.	.	.	.
=31	=31	=31	=31	=31	=31	=31	=31	=31	=31	=31	=31
4.a	No	2.r	.	2.r	.	2.FM	newline	voice	.	56.995	F:maj
4f	time	.	.	.	.	.	.	.	.	.	.
8b-	for	.	.	.	.	.	.	.	.	.	.
=32	=32	=32	=32	=32	=32	=32	=32	=32	=32	=32	=32
4.a	los-	2.r	.	2.r	.	2.E-MM	.	voice	.	58.891	E-:maj7(#11)/3
8f	-ers	.	.	.	.	.	.	.	.	.	.
8r	.	.	.	.	.	.	.	.	.	.	.
8b-	'Cause	.	.	.	.	.	.	.	.	.	.
=33	=33	=33	=33	=33	=33	=33	=33	=33	=33	=33	=33
4.a	we	2.r	.	2.r	.	2.A-M	.	voice	.	60.787	A-:maj6
4f	are	.	.	.	.	.	.	.	.	.	.
8b-	the	.	.	.	.	.	.	.	.	.	.
=34	=34	=34	=34	=34	=34	=34	=34	=34	=34	=34	=34
4.a	champ-	2.r	.	2.r	.	2.B-M	.	voice	.	62.683	B-:maj
4.f	-ions	.	.	.	.	.	.	.	.	.	.
=35	=35	=35	=35	=35	=35	=35	=35	=35	=35	=35	=35
4.r	.	2.r	.	2.r	.	2.Cmm	.	voice	.	64.579	C:min7(11)
8r	.	.	.	.	.	.	.	.	.	.	.
8e-	of	.	.	.	.	.	.	.	.	.	.
16f	the	.	.	.	.	.	.	.	.	.	.
[16f	world	.	.	.	.	.	.	.	.	.	.
=36	=36	=36	=36	=36	=36	=36	=36	=36	=36	=36	=36
*>Letter>C	*>Letter>C	*>Letter>C	*>Letter>C	*>Letter>C	*>Letter>C	*>Letter>C	*>Letter>C	*>Letter>C	*>Letter>C	*>Letter>C	*>Letter>C
*>Label>Trans	*>Label>Trans	*>Label>Trans	*>Label>Trans	*>Label>Trans	*>Label>Trans	*>Label>Trans	*>Label>Trans	*>Label>Trans	*>Label>Trans	*>Label>Trans	*>Label>Trans
*f:	*	*f:	*	*f:	*	*f:	*	*	*	*	*f:
2.f_	_	2.r	.	2.r	.	2.Fm	newline	piano	.	66.474	F:min
=37	=37	=37	=37	=37	=37	=37	=37	=37	=37	=37	=37
2.f_	_	2.r	.	2.r	.	2.Gmm	.	piano	.	68.377	G:min7
=38	=38	=38	=38	=38	=38	=38	=38	=38	=38	=38	=38
2.f]	_	2.r	.	2.r	.	2.Fm	.	piano	.	70.28	F:min
=39	=39	=39	=39	=39	=39	=39	=39	=39	=39	=39	=39
2.r	.	2.r	.	2.r	.	2.Gmm	.	piano	.	72.182	G:min7
=40	=40	=40	=40	=40	=40	=40	=40	=40	=40	=40	=40
2.r	.	2.r	.	2.r	.	2.Fm	.	piano	.	74.085	F:min
=41	=41	=41	=41	=41	=41	=41	=41	=41	=41	=41	=41
4r	.	2.r	.	2.r	.	2.Cm	.	piano	.	75.988	C:sus4(b7)
*c:	*	*c:	*	*c:	*	*c:	*c:	*c:	*	*c:	*c:
8G	I've	.	.	.	.	.	.	.	.	.	.
8G	ta-	.	.	.	.	.	.	.	.	.	.
8B-	-ken	.	.	.	.	.	.	.	.	.	.
8c	my	.	.	.	.	.	.	.	.	.	.
=42	=42	=42	=42	=42	=42	=42	=42	=42	=42	=42	=42
*>Letter>A	*>Letter>A	*>Letter>A	*>Letter>A	*>Letter>A	*>Letter>A	*>Letter>A	*>Letter>A	*>Letter>A	*>Letter>A	*>Letter>A	*>Letter>A
*>Label>Verse	*>Label>Verse	*>Label>Verse	*>Label>Verse	*>Label>Verse	*>Label>Verse	*>Label>Verse	*>Label>Verse	*>Label>Verse	*>Label>Verse	*>Label>Verse	*>Label>Verse
4.c	bows	2.r	.	2.r	.	2.Cm	newline	voice	D	77.89	C:min
4.r	.	.	.	.	.	.	.	.	.	.	.
=43	=43	=43	=43	=43	=43	=43	=43	=43	=43	=43	=43
8r	.	2.r	.	2.r	.	2.Gm	.	voice	.	79.812	G:sus4(b7)/4
8G	and	.	.	.	.	.	.	.	.	.	.
[8G	my	.	.	.	.	.	.	.	.	.	.
8G]	_	.	.	.	.	.	.	.	.	.	.
8B-	cur-	.	.	.	.	.	.	.	.	.	.
16d	-tain	.	.	.	.	.	.	.	.	.	.
[16c	calls	.	.	.	.	.	.	.	E	.	.
=44	=44	=44	=44	=44	=44	=44	=44	=44	=44	=44	=44
4.c]	_	2.r	.	2.r	.	2.Cm	.	voice	.	81.733	C:min
4.r	.	.	.	.	.	.	.	.	.	.	.
=45	=45	=45	=45	=45	=45	=45	=45	=45	=45	=45	=45
4.r	.	2.r	.	2.r	.	2.Gm	.	voice	.	83.654	G:sus4(b7)/4
8G	You	.	.	.	.	.	.	.	.	.	.
8B-	brought	.	.	.	.	.	.	.	.	.	.
8c	my	.	.	.	.	.	.	.	.	.	.
=46	=46	=46	=46	=46	=46	=46	=46	=46	=46	=46	=46
8.c	fame	2.r	.	2.r	.	2.Cm	newline	voice	.	85.576	C:min
8c	and	.	.	.	.	.	.	.	.	.	.
[16c	for-	.	.	.	.	.	.	.	.	.	.
16c]	_	.	.	.	.	.	.	.	.	.	.
16c	-tune	.	.	.	.	.	.	.	.	.	.
16c	and	.	.	.	.	.	.	.	.	.	.
16c	ev-	.	.	.	.	.	.	.	.	.	.
16c	-ery-	.	.	.	.	.	.	.	.	.	.
16c	-thing	.	.	.	.	.	.	.	.	.	.
=47	=47	=47	=47	=47	=47	=47	=47	=47	=47	=47	=47
16c	that	2.r	.	2.r	.	2.Gm	.	voice	.	87.484	G:sus4(b7)/4
8.d	goes	.	.	.	.	.	.	.	.	.	.
16G	with	.	.	.	.	.	.	.	.	.	.
16G	it	.	.	.	.	.	.	.	.	.	.
8.r	.	.	.	.	.	.	.	.	.	.	.
16G	I	.	.	.	.	.	.	.	.	.	.
16B-	thank	.	.	.	.	.	.	.	.	.	.
16d	you	.	.	.	.	.	.	.	.	.	.
=48	=48	=48	=48	=48	=48	=48	=48	=48	=48	=48	=48
4.c	all	2.r	.	2.r	.	2.Cm	.	voice	E	89.393	C:min
4r	.	.	.	.	.	.	.	.	.	.	.
8r	.	.	.	.	.	.	.	.	.	.	.
=49	=49	=49	=49	=49	=49	=49	=49	=49	=49	=49	=49
8r	.	2.r	.	2.r	.	2.Gm	.	voice	.	91.301	G:sus4(b7)/4
16B-	But	.	.	.	.	.	.	.	.	.	.
8B-	it's	.	.	.	.	.	.	.	.	.	.
[16B-	been	.	.	.	.	.	.	.	.	.	.
16B-]	_	.	.	.	.	.	.	.	.	.	.
8B-	no	.	.	.	.	.	.	.	.	.	.
8d	bed	.	.	.	.	.	.	.	.	.	.
16e-	of	.	.	.	.	.	.	.	.	.	.
=50	=50	=50	=50	=50	=50	=50	=50	=50	=50	=50	=50
8.e-	ro-	2.r	.	2.r	.	2.E-M	newline	voice	(D	93.21	E-:maj
16e-	-ses	.	.	.	.	.	.	.	d)	.	.
16c	_	.	.	.	.	.	.	.	.	.	.
16B-	_	.	.	.	.	.	.	.	.	.	.
4.r	.	.	.	.	.	.	.	.	.	.	.
=51	=51	=51	=51	=51	=51	=51	=51	=51	=51	=51	=51
4.r	.	2.r	.	2.r	.	2.B-m	.	voice	.	95.106	B-:sus4(b7)/4
8B-	No	.	.	.	.	.	.	.	.	.	.
8.d	pleas-	.	.	.	.	.	.	.	.	.	.
16e-	-ure	.	.	.	.	.	.	.	.	.	.
=52	=52	=52	=52	=52	=52	=52	=52	=52	=52	=52	=52
2.e-	cruise	2.r	.	2.r	.	2.E-M	.	voice	A	97.003	E-:maj
=53	=53	=53	=53	=53	=53	=53	=53	=53	=53	=53	=53
4r	.	2.r	.	2.r	.	2.B-m	.	voice	.	98.9	B-:sus4(b7)/4
8B-	Con-	.	.	.	.	.	.	.	.	.	.
16B-	-sid-	.	.	.	.	.	.	.	.	.	.
16B-	-er	.	.	.	.	.	.	.	.	.	.
16B-	it	.	.	.	.	.	.	.	.	.	.
8d	a	.	.	.	.	.	.	.	.	.	.
16r	.	.	.	.	.	.	.	.	.	.	.
=54	=54	=54	=54	=54	=54	=54	=54	=54	=54	=54	=54
16e-	cha-	2.r	.	2.r	.	4.E-M	newline	voice	.	100.797	E-:maj
8e-	-llenge	.	.	.	.	.	.	.	.	.	.
16e-	be-	.	.	.	.	.	.	.	.	.	.
16f	-fore	.	.	.	.	.	.	.	.	.	.
16f	the	.	.	.	.	.	.	.	.	.	.
8.f	whole	.	.	.	.	4.B-M	.	voice	.	101.746	B-:maj/3
16f	hu-	.	.	.	.	.	.	.	.	.	.
8g	-man	.	.	.	.	.	.	.	.	.	.
=55	=55	=55	=55	=55	=55	=55	=55	=55	=55	=55	=55
8g	race	2.r	.	2.r	.	4.Cm	.	voice	.	102.696	C:min
8r	.	.	.	.	.	.	.	.	.	.	.
16g	and	.	.	.	.	.	.	.	.	.	.
16g	I	.	.	.	.	.	.	.	.	.	.
16a	_	.	.	.	.	4.FMm	.	voice	.	103.645	F:7
8a	ain't	.	.	.	.	.	.	.	.	.	.
16a	gon-	.	.	.	.	.	.	.	.	.	.
16b-	-na	.	.	.	.	.	.	.	.	.	.
[16b-	lose	.	.	.	.	.	.	.	A	.	.
=56	=56	=56	=56	=56	=56	=56	=56	=56	=56	=56	=56
2.b-]	_	4.r	.	2.r	.	2.B-M	.	voice	.	104.595	B-:maj
.	.	16B-	And	.	.	.	.	.	.	.	.
.	.	16c	the	.	.	.	.	.	.	.	.
.	.	16d	beat	.	.	.	.	.	.	.	.
.	.	16f	will	.	.	.	.	.	.	.	.
.	.	8a-	go	.	.	.	.	.	.	.	.
=57	=57	=57	=57	=57	=57	=57	=57	=57	=57	=57	=57
2.r	.	4cc	on	4c	on	4.B-m	.	voice	.	106.494	B-:sus4(b7)
.	.	8r	.	8r	.	.	.	.	.	.	.
.	.	4cc	on	4d-	on	4.B-Mm	.	voice	.	107.443	B-:7(#11)
.	.	8r	.	8r	.	.	.	.	.	.	.
=58	=58	=58	=58	=58	=58	=58	=58	=58	=58	=58	=58
4.r	.	4cc	on	4d	on	4.B-Mm	.	voice	.	108.393	B-:7
.	.	8r	.	8r	.	.	.	.	.	.	.
*F:	*	*F:	*	*F:	*	*F:	*	*	*	*	*F:
8.r	.	4.cc	on	4.e	on	4.CMm	.	voice	.	109.342	C:7
8.e	We	.	.	.	.	.	.	.	.	.	.
=59	=59	=59	=59	=59	=59	=59	=59	=59	=59	=59	=59
*>Letter>B	*>Letter>B	*>Letter>B	*>Letter>B	*>Letter>B	*>Letter>B	*>Letter>B	*>Letter>B	*>Letter>B	*>Letter>B	*>Letter>B	*>Letter>B
*>Label>Chorus	*>Label>Chorus	*>Label>Chorus	*>Label>Chorus	*>Label>Chorus	*>Label>Chorus	*>Label>Chorus	*>Label>Chorus	*>Label>Chorus	*>Label>Chorus	*>Label>Chorus	*>Label>Chorus
[4.f	_	4.r	.	4.r	.	2.FM	newline	voice	.	110.292	F:maj
8f]	_	4.r	.	4.r	.	.	.	.	.	.	.
8e	are	.	.	.	.	.	.	.	.	.	.
8f	the	.	.	.	.	.	.	.	.	.	.
=60	=60	=60	=60	=60	=60	=60	=60	=60	=60	=60	=60
4e	champ-	2.r	.	2.r	.	2.Amm	.	voice	.	112.197	A:min7
[8c	-ions	.	.	.	.	.	.	.	.	.	.
8c]	_	.	.	.	.	.	.	.	.	.	.
8r	.	.	.	.	.	.	.	.	.	.	.
8A	my	.	.	.	.	.	.	.	.	.	.
=61	=61	=61	=61	=61	=61	=61	=61	=61	=61	=61	=61
4d	friend	2.r	.	2.r	.	2.Dm	.	voice	C	114.101	D:min
[8A	_	.	.	.	.	.	.	.	.	.	.
4.A]	_	.	.	.	.	.	.	.	.	.	.
=62	=62	=62	=62	=62	=62	=62	=62	=62	=62	=62	=62
4.r	.	2.r	.	2.r	.	4.B-m	.	voice	.	116.006	B-:5
4r	.	.	.	.	.	4.Cm	.	voice	.	116.959	C:5
8c	and	.	.	.	.	.	.	.	.	.	.
=63	=63	=63	=63	=63	=63	=63	=63	=63	=63	=63	=63
[4.f	we'll	2.r	.	2.r	.	2.FM	newline	voice	.	117.911	F:maj
8f]	_	.	.	.	.	.	.	.	.	.	.
8g	keep	.	.	.	.	.	.	.	.	.	.
8a	on	.	.	.	.	.	.	.	.	.	.
=64	=64	=64	=64	=64	=64	=64	=64	=64	=64	=64	=64
4cc	fight-	2.r	.	2.r	.	2.Amm	.	voice	.	119.798	A:min7
[8a	-ing	.	.	.	.	.	.	.	.	.	.
8.a]	_	.	.	.	.	.	.	.	.	.	.
[8.d	till	.	.	.	.	.	.	.	.	.	.
=65	=65	=65	=65	=65	=65	=65	=65	=65	=65	=65	=65
16d]	_	2.r	.	2.r	.	2.B-M	.	voice	.	121.684	B-:maj
16e	the	.	.	.	.	.	.	.	.	.	.
[4d	end	.	.	.	.	.	.	.	C	.	.
4.d]	_	.	.	.	.	.	.	.	.	.	.
=66	=66	=66	=66	=66	=66	=66	=66	=66	=66	=66	=66
2.r	.	2.r	.	2.r	.	2.DMm	.	voice	.	123.571	D:7/3
=67	=67	=67	=67	=67	=67	=67	=67	=67	=67	=67	=67
4.d	We	2.r	.	2.r	.	2.Gm	newline	voice	.	125.457	G:min
4c	are	.	.	.	.	.	.	.	.	.	.
8d	the	.	.	.	.	.	.	.	.	.	.
=68	=68	=68	=68	=68	=68	=68	=68	=68	=68	=68	=68
4.c	champ-	2.r	.	2.r	.	2.Gm	.	voice	.	.	G:min
4B-	-ions	.	.	.	.	.	.	.	.	.	.
8r	.	.	.	.	.	.	.	.	.	.	.
=69	=69	=69	=69	=69	=69	=69	=69	=69	=69	=69	=69
4.b-	We	2.r	.	2.r	.	2.B-m	.	voice	.	129.264	B-:min
4a	are	.	.	.	.	.	.	.	.	.	.
8b-	the	.	.	.	.	.	.	.	.	.	.
=70	=70	=70	=70	=70	=70	=70	=70	=70	=70	=70	=70
4.a	champ-	2.r	.	2.r	.	4.AMm	.	voice	.	131.168	A:7(b9)/5
4g	-ions	.	.	.	.	4.AMm	.	voice	.	132.119	A:7(b9)/b7
8r	.	.	.	.	.	.	.	.	.	.	.
=71	=71	=71	=71	=71	=71	=71	=71	=71	=71	=71	=71
4.a	No	2.r	.	2.r	.	2.FM	newline	voice	.	133.071	F:maj
4f	time	.	.	.	.	.	.	.	.	.	.
8b-	for	.	.	.	.	.	.	.	.	.	.
=72	=72	=72	=72	=72	=72	=72	=72	=72	=72	=72	=72
4.a	los-	2.r	.	2.r	.	2.E-MM	.	voice	.	134.958	E-:maj7(#11)/3
8f	-ers	.	.	.	.	.	.	.	.	.	.
8r	.	.	.	.	.	.	.	.	.	.	.
8b-	'Cause	.	.	.	.	.	.	.	.	.	.
=73	=73	=73	=73	=73	=73	=73	=73	=73	=73	=73	=73
4.a	we	2.r	.	2.r	.	2.A-M	.	voice	.	136.844	A-:maj6
4f	are	.	.	.	.	.	.	.	.	.	.
8b-	the	.	.	.	.	.	.	.	.	.	.
=74	=74	=74	=74	=74	=74	=74	=74	=74	=74	=74	=74
4.a	champ-	2.r	.	2.r	.	2.B-M	.	voice	.	138.731	B-:maj
4.f	-ions	.	.	.	.	.	.	.	.	.	.
=75	=75	=75	=75	=75	=75	=75	=75	=75	=75	=75	=75
2.r	.	4.r	.	2.r	.	2.Cmm	.	voice	.	140.617	C:min7(11)
.	.	8r	.	.	.	.	.	.	.	.	.
.	.	8e-	of	.	.	.	.	.	.	.	.
.	.	16f	the	.	.	.	.	.	.	.	.
.	.	[16f	world	.	.	.	.	.	.	.	.
=76	=76	=76	=76	=76	=76	=76	=76	=76	=76	=76	=76
*>Letter>B	*>Letter>B	*>Letter>B	*>Letter>B	*>Letter>B	*>Letter>B	*>Letter>B	*>Letter>B	*>Letter>B	*>Letter>B	*>Letter>B	*>Letter>B
*>Label>Chorus	*>Label>Chorus	*>Label>Chorus	*>Label>Chorus	*>Label>Chorus	*>Label>Chorus	*>Label>Chorus	*>Label>Chorus	*>Label>Chorus	*>Label>Chorus	*>Label>Chorus	*>Label>Chorus
[4.f	We	4.f_	_	2.r	.	2.FM	newline	voice	.	142.504	F:maj
8f]	_	4f]	_	.	.	.	.	.	.	.	.
8e	are	.	.	.	.	.	.	.	.	.	.
8f	the	8r	.	.	.	.	.	.	.	.	.
=77	=77	=77	=77	=77	=77	=77	=77	=77	=77	=77	=77
4e	champ-	2.r	.	2.r	.	2.Amm	.	voice	.	144.362	A:min7
[8c	-ions	.	.	.	.	.	.	.	.	.	.
8c]	_	.	.	.	.	.	.	.	.	.	.
8r	.	.	.	.	.	.	.	.	.	.	.
8A	my	.	.	.	.	.	.	.	.	.	.
=78	=78	=78	=78	=78	=78	=78	=78	=78	=78	=78	=78
4d	friend	2.r	.	2.r	.	2.Dm	.	voice	C	146.22	D:min
[8A	_	.	.	.	.	.	.	.	.	.	.
4.A]	_	.	.	.	.	.	.	.	.	.	.
=79	=79	=79	=79	=79	=79	=79	=79	=79	=79	=79	=79
4.r	.	2.r	.	2.r	.	4.B-m	.	voice	.	148.077	B-:5
4r	.	.	.	.	.	4.Cm	.	voice	.	149.006	C:5
8a	and	.	.	.	.	.	.	.	.	.	.
=80	=80	=80	=80	=80	=80	=80	=80	=80	=80	=80	=80
[4.a	we'll	2.r	.	2.r	.	2.FM	newline	voice	.	149.935	F:maj
8a]	_	.	.	.	.	.	.	.	.	.	.
8a	keep	.	.	.	.	.	.	.	.	.	.
8a	on	.	.	.	.	.	.	.	.	.	.
=81	=81	=81	=81	=81	=81	=81	=81	=81	=81	=81	=81
16a	fight-	2.r	.	2.r	.	2.Amm	.	voice	.	151.776	A:min7
8.g	_	.	.	.	.	.	.	.	.	.	.
[8g	-ing	.	.	.	.	.	.	.	.	.	.
4.g]	_	.	.	.	.	.	.	.	.	.	.
=82	=82	=82	=82	=82	=82	=82	=82	=82	=82	=82	=82
8d	till	2.r	.	2.r	.	2.B-M	.	voice	.	153.616	B-:maj
8e	the	.	.	.	.	.	.	.	.	.	.
[8d	end	.	.	.	.	.	.	.	C	.	.
4.d]	_	.	.	.	.	.	.	.	.	.	.
=83	=83	=83	=83	=83	=83	=83	=83	=83	=83	=83	=83
4.r	.	2.r	.	2.r	.	2.DMm	.	voice	.	155.456	D:7/3
4.d	Ah	.	.	.	.	.	.	.	.	.	.
=84	=84	=84	=84	=84	=84	=84	=84	=84	=84	=84	=84
4.d	We	2.r	.	2.r	.	2.Gm	newline	voice	.	157.297	G:min
4c	are	.	.	.	.	.	.	.	.	.	.
8d	the	.	.	.	.	.	.	.	.	.	.
=85	=85	=85	=85	=85	=85	=85	=85	=85	=85	=85	=85
4.c	champ-	2.r	.	2.r	.	2.Gm	.	voice	.	.	G:min
4B-	-ions	.	.	.	.	.	.	.	.	.	.
8r	.	.	.	.	.	.	.	.	.	.	.
=86	=86	=86	=86	=86	=86	=86	=86	=86	=86	=86	=86
4.b-	We	2.r	.	2.r	.	2.B-m	.	voice	.	161.071	B-:min
4a	are	.	.	.	.	.	.	.	.	.	.
8b-	the	.	.	.	.	.	.	.	.	.	.
=87	=87	=87	=87	=87	=87	=87	=87	=87	=87	=87	=87
4.a	champ-	2.r	.	2.r	.	4.AMm	.	voice	.	162.958	A:7(b9)/5
4g	-ions	.	.	.	.	4.AMm	.	voice	.	163.902	A:7(b9)/b7
8r	.	.	.	.	.	.	.	.	.	.	.
=88	=88	=88	=88	=88	=88	=88	=88	=88	=88	=88	=88
4.a	No	2.r	.	2.r	.	2.FM	newline	voice	.	164.846	F:maj
4f	time	.	.	.	.	.	.	.	.	.	.
8b-	for	.	.	.	.	.	.	.	.	.	.
=89	=89	=89	=89	=89	=89	=89	=89	=89	=89	=89	=89
4.a	los-	2.r	.	2.r	.	2.E-MM	.	voice	.	166.75	E-:maj7(#11)/3
8f	-ers	.	.	.	.	.	.	.	.	.	.
8r	.	.	.	.	.	.	.	.	.	.	.
8b-	'Cause	.	.	.	.	.	.	.	.	.	.
=90	=90	=90	=90	=90	=90	=90	=90	=90	=90	=90	=90
4.a	we	2.r	.	2.r	.	2.A-M	.	voice	.	168.655	A-:maj6
4f	are	.	.	.	.	.	.	.	.	.	.
8b-	the	.	.	.	.	.	.	.	.	.	.
=91	=91	=91	=91	=91	=91	=91	=91	=91	=91	=91	=91
4.a	champ-	2.r	.	2.r	.	2.B-M	.	voice	.	170.56	B-:maj
4.f	-ions	.	.	.	.	.	.	.	.	.	.
=92	=92	=92	=92	=92	=92	=92	=92	=92	=92	=92	=92
2.r	.	2.r	.	2.r	.	2.Cmm	.	voice	.	172.464	C:min7(11)
r;	.	r;	.	r;	.	1r;	.	r	.	178.654	N.C.
r;	.	r;	.	r;	.	1r;	.	r	.	183.171	N.C.
*-	*-	*-	*-	*-	*-	*-	*-	*-	*-	*-	*-
!!!BillboardChartDate: 1978/01/14
!!!BillboardPeak: 4
!!!BillboardWeeksOnChart: 27
!!!COC: Queen
!!!ENC: Nathaniel Condit-Schultz
!!!EST: Awating manual error checking and editing.
!!!OTL: We Are The Champions
!!!RDF**chordsym: original McGill chord annotation + (implied pitch class set, with bass pitch in first position)
!!!RDF**harmony: **recip + pitch class of root + harmonic quality
!!!RDF**leadinstrument: original McGill primary instrumentation annotation
!!!RDF**phrase: newline = linebreak in original McGill transcription
!!!RDF**timestamp: McGill audio timestamp in seconds
!!!RDT: 2017/01/12/
!!!SampleActualRank: 10
!!!SampleID#: 0588
!!!SampleTargetRank: 10
